server/public/assets/public/images/icons/cookie_monster_1.svg

<svg xmlns="http://www.w3.org/2000/svg" xmlns:xlink="http://www.w3.org/1999/xlink" width="48" height="40"><defs><path d="M33.786.382c-.342-.434-.97-.506-1.404-.168L30.37 1.682 31 2c.24.456-3.14 2.13-3.885 2.043l1.813.735c-.623.5-2.373.782-3.04.626-.48-.112-.938-.26-1.543-.33-.133.025 1.416 1.7 1.348 1.72C23.353 7.47 22 6 22 6v3s-2.732-.23-3.928-1.904l-.08.018C18.01 8.537 16.46 10.707 16 11c.098-.768-.22-2.256-.85-3.048-.378 1.015-.88 2.123-2.128 3.048-.116-.09-.02-2-.02-2s-.835 1.082-1.985 1.565l-.02-2.544-.065.002C10.655 8.12 9.6 8.572 9 10c-.62-.48-.855-1.62-.997-1.992C7.846 8.015 7.578 9.29 6 10c-.19-.162-.13-1.856-2.003-2.37.003-.004.016-.01.02-.016l-2.724-.57c-.527-.156-1.087.135-1.25.662a1 1 0 0 0 .661 1.249C.873 9.007 2.23 9.71 4 10c1.78 3.46 7 11 17 10C31.478 18.952 31.344 7.843 31 4c.807-.545 1.814-1.58 2.618-2.214a1 1 0 0 0 .168-1.404z" id="A"/><path d="M27.115 4.043L27 4c.024.024.064.037.115.043z" id="B"/></defs><g transform="translate(1 -1)" fill="none" fill-rule="evenodd"><g stroke="#14145b" stroke-linejoin="round"><path d="M33.4 7.524C37.212 7.2 38 6 38 6l-1 3s.615-1.26 2.523-.353S43 12 43 12l-.858 1.412L44 16l-1.075.725.216.72c.573.37 2.012.826 2.86 1.554-.047 1.438-1.514 1.7-2.427 1.795-.01 2.2-.59 4.37-1.642 6.398-.093 1.95.21 4.22.21 4.22H40.57s-.14-.524-1.572 1.06-2.62 1.588-2.62 1.588.036 1.17-1.048 2.647-3.143 1.06-3.143 1.06l-1.572 1.588s-1.25.22-3.667 0c-2.906 1.015-7.334.53-7.334.53s-4.415-1.835-4.715 0c-1.045-1.482-3.143-2.118-3.143-2.118s.028 1.237-.524 1.06C8.92 36.972 8.697 34.9 8.1 35.647 6.31 34.62 5.73 32.54 5.55 31.5l-.34-.48-1.836.92c.202-2.112-.26-4.172-2.62-6.353s1.572-6.353 1.572-6.353-.373.245-2.096-2.118c4.603-.365 4.715-1.588 4.715-1.588s.294-.208-2.62-.53c.848-1.643 4.715-2.647 4.715-2.647s-1.575-.306-1.572-1.588c.352.76 3.197.64 4.3.563 2.796-2.212 6.32-3.887 10.3-4.707 4.777-.984 9.436-.575 13.33.903z" fill="#1493f6"/><g fill="#fff"><circle cx="15.5" cy="8.5" r="5.5"/><circle cx="26.5" cy="7.5" r="5.5"/></g></g><g fill="#14145b"><circle cx="25" cy="7" r="2"/><circle cx="17" cy="10" r="2"/></g><g transform="translate(5 13)"><use fill="#0d43a4" xlink:href="#A"/><use fill-opacity=".73" fill="#14145b" xlink:href="#A"/><use fill="#0d43a4" xlink:href="#B"/><use fill="#14145b" xlink:href="#B"/></g></g></svg>

<?xml version="1.0" encoding="UTF-8"?>
<svg width="48px" height="40px" viewBox="0 0 48 40" version="1.1" xmlns="http://www.w3.org/2000/svg" xmlns:xlink="http://www.w3.org/1999/xlink">
    <!-- Generator: Sketch 52.6 (67491) - http://www.bohemiancoding.com/sketch -->
    <title>icons8-cookie-monster</title>
    <desc>Created with Sketch.</desc>
    <defs>
        <path d="M33.786,0.382 C33.444,-0.052 32.815,-0.124 32.382,0.214 C31.713,0.74 31.042,1.221 30.369,1.682 C30.73,1.858 31,2 31,2 C31.241,2.456 27.859,4.131 27.115,4.043 C27.521,4.201 28.94,4.769 28.928,4.778 C28.305,5.288 26.555,5.56 25.888,5.404 C25.408,5.292 24.95,5.144 24.345,5.075 C24.212,5.1 25.761,6.775 25.693,6.794 C23.353,7.47 22,6 22,6 L22,9 C22,9 19.268,8.77 18.072,7.096 C18.046,7.102 18.019,7.108 17.993,7.114 C18.009,8.537 16.46,10.707 16,11 C16.098,10.232 15.781,8.744 15.149,7.952 C14.771,8.967 14.268,10.075 13.021,11 C12.905,10.911 13,9 13,9 C13,9 12.165,10.082 11.015,10.565 C10.936,8.509 10.98,8.099 10.996,8.021 C10.974,8.022 10.953,8.022 10.931,8.023 C10.655,8.12 9.599,8.572 9,10 C8.381,9.519 8.145,8.38 8.003,8.008 C7.998,8.008 7.994,8.008 7.99,8.007 C7.846,8.015 7.578,9.291 6,10 C5.811,9.838 5.871,8.144 3.997,7.63 C4,7.626 4.013,7.619 4.018,7.614 C2.329,7.348 1.334,7.056 1.294,7.044 C0.767,6.888 0.207,7.179 0.044,7.706 C-0.118,8.233 0.177,8.793 0.705,8.955 C0.873,9.007 2.229,9.709 4,10 C5.781,13.46 11,21 21,20 C31.478,18.952 31.344,7.843 31,4 C31.807,3.455 32.814,2.419 33.618,1.786 C34.052,1.444 34.127,0.815 33.786,0.382 Z" id="path-1"></path>
        <path d="M27.115,4.043 C27.046,4.016 26.998,3.998 27,4 C27.024,4.024 27.064,4.037 27.115,4.043 Z" id="path-2"></path>
    </defs>
    <g id="Page-1" stroke="none" stroke-width="1" fill="none" fill-rule="evenodd">
        <g id="icons8-cookie-monster" transform="translate(1.000000, -1.000000)">
            <path d="M33.39,7.524 C37.212,7.21 38,6 38,6 L37,9 C37,9 37.615,7.74 39.523,8.647 C41.43,9.555 43,12 43,12 L42.142,13.412 L44,16 L42.925,16.725 C43.004,16.962 43.076,17.202 43.141,17.446 C43.714,17.817 45.153,18.272 46,19 C45.953,20.438 44.486,20.701 43.573,20.795 C43.562,22.996 42.982,25.166 41.931,27.193 C41.838,29.142 42.142,31.413 42.142,31.413 L40.57,31.413 C40.57,31.413 40.43,30.889 38.998,32.472 C37.566,34.055 36.379,34.06 36.379,34.06 C36.379,34.06 36.415,35.231 35.331,36.707 C34.248,38.183 32.188,37.766 32.188,37.766 L30.616,39.354 C30.616,39.354 29.365,39.575 26.949,39.354 C24.043,40.369 19.615,39.883 19.615,39.883 C19.615,39.883 15.2,38.048 14.9,39.883 C13.855,38.401 11.757,37.765 11.757,37.765 C11.757,37.765 11.785,39.002 11.233,38.824 C8.92,36.972 8.697,34.91 8.09,35.647 C6.309,34.621 5.731,32.539 5.55,31.5 C5.433,31.342 5.32,31.182 5.211,31.02 C4.942,31.16 4.408,31.431 3.375,31.941 C3.577,29.829 3.116,27.769 0.755,25.588 C-1.606,23.407 2.327,19.235 2.327,19.235 C2.327,19.235 1.954,19.48 0.231,17.117 C4.834,16.752 4.946,15.529 4.946,15.529 C4.946,15.529 5.24,15.321 2.326,15 C3.174,13.357 7.041,12.353 7.041,12.353 C7.041,12.353 5.466,12.047 5.469,10.765 C5.821,11.524 8.666,11.404 9.759,11.328 C12.555,9.116 16.079,7.441 20.06,6.621 C24.837,5.637 29.496,6.046 33.39,7.524 Z" id="Path" stroke="#14145B" fill="#1493F6" stroke-linecap="round" stroke-linejoin="round"></path>
            <circle id="Oval" stroke="#14145B" fill="#FFFFFF" stroke-linecap="round" stroke-linejoin="round" cx="15.5" cy="8.5" r="5.5"></circle>
            <circle id="Oval" stroke="#14145B" fill="#FFFFFF" stroke-linecap="round" stroke-linejoin="round" cx="26.5" cy="7.5" r="5.5"></circle>
            <circle id="Oval" fill="#14145B" cx="25" cy="7" r="2"></circle>
            <circle id="Oval" fill="#14145B" cx="17" cy="10" r="2"></circle>
            <g id="Group" transform="translate(5.000000, 13.000000)">
                <g id="Path">
                    <use fill="#0D43A4" xlink:href="#path-1"></use>
                    <use fill-opacity="0.73" fill="#14145B" xlink:href="#path-1"></use>
                </g>
                <g id="Path">
                    <use fill="#0D43A4" xlink:href="#path-2"></use>
                    <use fill="#14145B" xlink:href="#path-2"></use>
                </g>
            </g>
        </g>
    </g>
</svg>
